images/ideas-icon.svg

<svg width="12" height="16" viewBox="0 0 12 16" fill="none" xmlns="http://www.w3.org/2000/svg">
<path opacity="0.4" d="M3.50187 14.1984C3.50219 14.395 3.56031 14.5875 3.66937 14.7512L4.20344 15.5541C4.29467 15.6913 4.41841 15.8039 4.56366 15.8817C4.7089 15.9596 4.87114 16.0003 5.03594 16.0003H6.96438C7.12917 16.0003 7.29141 15.9596 7.43665 15.8817C7.5819 15.8039 7.70564 15.6913 7.79688 15.5541L8.33094 14.7512C8.43995 14.5875 8.49822 14.3952 8.49844 14.1984L8.49969 13H3.50031L3.50187 14.1984ZM0.5 5.5C0.5 6.88656 1.01406 8.15156 1.86125 9.11812C2.3775 9.70718 3.185 10.9378 3.49281 11.9759C3.49406 11.9841 3.495 11.9922 3.49625 12.0003H8.50375C8.505 11.9922 8.50594 11.9844 8.50719 11.9759C8.815 10.9378 9.6225 9.70718 10.1388 9.11812C10.9859 8.15156 11.5 6.88656 11.5 5.5C11.5 2.45656 9.02844 -0.00937887 5.98281 -3.87451e-06C2.795 0.00968363 0.5 2.59281 0.5 5.5ZM6 3C4.62156 3 3.5 4.12156 3.5 5.5C3.5 5.77625 3.27625 6 3 6C2.72375 6 2.5 5.77625 2.5 5.5C2.5 3.57 4.07 2 6 2C6.27625 2 6.5 2.22375 6.5 2.5C6.5 2.77625 6.27625 3 6 3Z" fill="#9FA2B4"/>
</svg>

<svg width="12" height="16" fill="none" xmlns="http://www.w3.org/2000/svg"><path opacity=".4" d="M3.502 14.198a1 1 0 0 0 .167.553l.534.803a1 1 0 0 0 .833.446h1.928a1 1 0 0 0 .833-.446l.534-.803a1 1 0 0 0 .167-.553L8.5 13h-5l.002 1.198ZM.5 5.5a5.47 5.47 0 0 0 1.361 3.618c.516.59 1.324 1.82 1.632 2.858l.003.024h5.008l.003-.024c.308-1.038 1.116-2.269 1.632-2.858A5.5 5.5 0 0 0 5.983 0C2.795.01.5 2.593.5 5.5ZM6 3a2.503 2.503 0 0 0-2.5 2.5.5.5 0 1 1-1 0C2.5 3.57 4.07 2 6 2a.5.5 0 1 1 0 1Z" fill="#9FA2B4"/></svg>
